src/img/icons/icon-comment.svg

<svg width="16" height="16" viewBox="0 0 16 16" fill="none" xmlns="http://www.w3.org/2000/svg">
<path fill-rule="evenodd" clip-rule="evenodd" d="M15.3749 -0.000304H0.624976C0.279696 -0.000304 -0.000112 0.279632 -0.000112 0.624656V12.9995C-0.000112 13.3448 0.279696 13.6245 0.624976 13.6245H6.15544L7.4715 15.7085C7.58595 15.8896 7.78554 15.9996 7.99989 15.9996C8.21435 15.9996 8.41382 15.8896 8.52837 15.7085L9.84445 13.6245H15.3749C15.7201 13.6245 15.9999 13.3448 15.9999 12.9995V0.624656C15.9999 0.279632 15.7201 -0.000304 15.3749 -0.000304ZM14.75 12.3748H9.49998C9.28552 12.3748 9.08605 12.4847 8.97149 12.6658L7.99989 14.2044L7.0284 12.6658C6.91384 12.4847 6.71437 12.3748 6.4999 12.3748H1.24994V1.2496H14.75V12.3748ZM7.2187 6.81232C7.2187 6.38066 7.56845 6.03085 7.99989 6.03085C8.43133 6.03085 8.78117 6.38066 8.78117 6.81232C8.78117 7.24374 8.43133 7.59355 7.99989 7.59355C7.56845 7.59355 7.2187 7.24374 7.2187 6.81232ZM4.09368 6.81232C4.09368 6.38066 4.44341 6.03085 4.87496 6.03085C5.3064 6.03085 5.65613 6.38066 5.65613 6.81232C5.65613 7.24374 5.3064 7.59355 4.87496 7.59355C4.44341 7.59355 4.09368 7.24374 4.09368 6.81232ZM10.3436 6.81232C10.3436 6.38066 10.6935 6.03085 11.1249 6.03085C11.5564 6.03085 11.9062 6.38066 11.9062 6.81232C11.9062 7.24374 11.5564 7.59355 11.1249 7.59355C10.6935 7.59355 10.3436 7.24374 10.3436 6.81232Z" fill="#FE3E57"/>
</svg>

<svg width="16" height="16" fill="none" xmlns="http://www.w3.org/2000/svg"><path fill-rule="evenodd" clip-rule="evenodd" d="M15.375 0H.625A.625.625 0 000 .625v12.374c0 .346.28.625.625.625h5.53l1.316 2.085a.625.625 0 001.057 0l1.316-2.085h5.53c.346 0 .626-.28.626-.625V.625A.625.625 0 0015.375 0zm-.625 12.375H9.5a.625.625 0 00-.529.29L8 14.206l-.972-1.54a.625.625 0 00-.528-.29H1.25V1.25h13.5v11.125zM7.219 6.812a.781.781 0 111.562 0 .781.781 0 01-1.562 0zm-3.125 0a.781.781 0 111.562 0 .781.781 0 01-1.562 0zm6.25 0a.781.781 0 111.562 0 .781.781 0 01-1.562 0z" fill="#FE3E57"/></svg>
